X:1
T:Farbror Olles gnglt
R:march
M:2/4
L:1/16
Q:1/4=75
K:G
% part A
| DD\
|:"G"D2G2 G3B | "G"ABAF G2GF | "C"E2C2 C2EG | "D"F2D2 D2DF \
| "Am"A2c2 "C"c3e | "G"dedB G2Bd | "D"cdcA F2D2 \
|1 "G"G6 DD :|2 "G"G6 Bd |
% part B
|:"G"g2ag f2e2 | "D"cdcA F2Ad | "D"f2gf e2d2 \
| "G"BcBA G2GA | "G"B2cB A2G2 | "C"E2DE c3A \
| "D"F3E D2FA |1 "G"G6 Bd :|2 "G"G8 ||
